images/content/logos/BBC.svg

<svg xmlns="http://www.w3.org/2000/svg" viewBox="0 0 33.9 10.1" enable-background="new 0 0 33.9 10.1"><style type="text/css">.st0{fill-rule:evenodd;clip-rule:evenodd;fill:#FFFFFF;}</style><path class="st0" d="M33.9 0h-10.5v10.1h10.5v-10.1zm-2.4 2.9c-.8-.5-1.6-.7-2.4-.7-.8 0-1.5.3-2 .8s-.8 1.1-.8 1.9c0 .7.3 1.4.8 1.9.6.5 1.2.7 2 .7s1.7-.3 2.5-.8v1.1c-.8.4-1.6.6-2.5.6-.8 0-1.4-.2-2-.5-.5-.3-1-.8-1.3-1.3-.3-.6-.5-1.2-.5-1.8 0-1 .4-1.9 1.1-2.6.7-.7 1.6-1.1 2.7-1.1.8 0 1.6.2 2.4.6v1.2z"/><path class="st0" d="M22.2 0h-10.5v10.1h10.5v-10.1zm-7.3 1.5h1.8c.6 0 1 .1 1.4.2.3.2.6.4.7.6.2.3.3.6.3.9 0 .7-.3 1.2-1.1 1.5.5.1.9.3 1.2.6.3.3.4.7.4 1.2 0 .3-.1.7-.3.9-.1.4-.3.6-.7.8-.4.2-.8.3-1.3.3h-2.4v-7z"/><path class="st0" d="M16.6 4.5c.5 0 .9-.1 1.1-.3.2-.2.3-.5.3-.8 0-.7-.4-1-1.3-1h-.9v2.1h.8z"/><path class="st0" d="M16.9 5.4h-.9v2.2h1c.5 0 .8 0 1.1-.1.2-.1.4-.3.5-.4.1-.2.2-.4.2-.6 0-.2-.1-.4-.2-.6-.1-.2-.3-.3-.5-.4-.4-.1-.7-.1-1.2-.1"/><path class="st0" d="M10.5 0h-10.5v10.1h10.5v-10.1zm-7.3 8.5v-7h1.8c.6 0 1 .1 1.3.2.4.2.7.4.8.7.2.3.3.6.3.9 0 .7-.4 1.2-1.1 1.5.5.1.9.3 1.2.6.3.3.5.7.5 1.2 0 .4-.1.7-.3.9-.2.3-.5.5-.8.7-.4.2-.8.3-1.3.3h-2.4z"/><path class="st0" d="M5.1 2.4h-.9v2.1h.7c.5 0 .9-.1 1.1-.3.2-.2.3-.5.3-.8 0-.7-.4-1-1.2-1"/><path class="st0" d="M5.1 5.4h-.9v2.2h1c.5 0 .9 0 1.1-.1.2-.1.3-.2.5-.4.1-.2.2-.4.2-.6 0-.2-.1-.4-.2-.6-.2-.2-.3-.3-.6-.4-.2-.1-.6-.1-1.1-.1"/></svg>

<?xml version="1.0" encoding="utf-8"?>
<!-- Generator: Adobe Illustrator 20.1.0, SVG Export Plug-In . SVG Version: 6.00 Build 0)  -->
<svg version="1.1" id="Layer_1" xmlns="http://www.w3.org/2000/svg" xmlns:xlink="http://www.w3.org/1999/xlink" x="0px" y="0px"
	 viewBox="0 0 33.9 10.1" style="enable-background:new 0 0 33.9 10.1;" xml:space="preserve">
<style type="text/css">
	.st0{fill-rule:evenodd;clip-rule:evenodd;fill:#FFFFFF;}
</style>
<path class="st0" d="M33.9,0H23.4v10.1h10.5V0z M31.5,2.9c-0.8-0.5-1.6-0.7-2.4-0.7c-0.8,0-1.5,0.3-2,0.8c-0.5,0.5-0.8,1.1-0.8,1.9
	c0,0.7,0.3,1.4,0.8,1.9c0.6,0.5,1.2,0.7,2,0.7c0.8,0,1.7-0.3,2.5-0.8v1.1c-0.8,0.4-1.6,0.6-2.5,0.6c-0.8,0-1.4-0.2-2-0.5
	c-0.5-0.3-1-0.8-1.3-1.3c-0.3-0.6-0.5-1.2-0.5-1.8c0-1,0.4-1.9,1.1-2.6c0.7-0.7,1.6-1.1,2.7-1.1c0.8,0,1.6,0.2,2.4,0.6V2.9z"/>
<path class="st0" d="M22.2,0H11.7v10.1h10.5V0z M14.9,1.5h1.8c0.6,0,1,0.1,1.4,0.2c0.3,0.2,0.6,0.4,0.7,0.6c0.2,0.3,0.3,0.6,0.3,0.9
	c0,0.7-0.3,1.2-1.1,1.5c0.5,0.1,0.9,0.3,1.2,0.6c0.3,0.3,0.4,0.7,0.4,1.2c0,0.3-0.1,0.7-0.3,0.9C19.2,7.8,19,8,18.6,8.2
	c-0.4,0.2-0.8,0.3-1.3,0.3h-2.4V1.5z"/>
<path class="st0" d="M16.6,4.5c0.5,0,0.9-0.1,1.1-0.3c0.2-0.2,0.3-0.5,0.3-0.8c0-0.7-0.4-1-1.3-1h-0.9v2.1H16.6z"/>
<path class="st0" d="M16.9,5.4h-0.9v2.2h1c0.5,0,0.8,0,1.1-0.1c0.2-0.1,0.4-0.3,0.5-0.4c0.1-0.2,0.2-0.4,0.2-0.6
	c0-0.2-0.1-0.4-0.2-0.6c-0.1-0.2-0.3-0.3-0.5-0.4C17.7,5.4,17.4,5.4,16.9,5.4"/>
<path class="st0" d="M10.5,0H0v10.1h10.5V0z M3.2,8.5v-7H5c0.6,0,1,0.1,1.3,0.2C6.7,1.9,7,2.1,7.1,2.4c0.2,0.3,0.3,0.6,0.3,0.9
	C7.4,4,7,4.5,6.3,4.8c0.5,0.1,0.9,0.3,1.2,0.6C7.8,5.7,8,6.1,8,6.6c0,0.4-0.1,0.7-0.3,0.9C7.5,7.8,7.2,8,6.9,8.2
	C6.5,8.4,6.1,8.5,5.6,8.5H3.2z"/>
<path class="st0" d="M5.1,2.4H4.2v2.1h0.7c0.5,0,0.9-0.1,1.1-0.3C6.2,4,6.3,3.7,6.3,3.4C6.3,2.7,5.9,2.4,5.1,2.4"/>
<path class="st0" d="M5.1,5.4H4.2v2.2h1c0.5,0,0.9,0,1.1-0.1c0.2-0.1,0.3-0.2,0.5-0.4c0.1-0.2,0.2-0.4,0.2-0.6
	c0-0.2-0.1-0.4-0.2-0.6C6.6,5.7,6.5,5.6,6.2,5.5C6,5.4,5.6,5.4,5.1,5.4"/>
</svg>
